src/images/clients/grubhub.svg

<svg width="162" height="34" viewBox="0 0 162 34" fill="none" xmlns="http://www.w3.org/2000/svg">
<path d="M112.779 0.660975H107.109C106.785 0.660975 106.623 0.982639 106.623 1.14348V13.3943H100.953V1.14348C100.953 0.821797 100.629 0.660975 100.467 0.660975H94.797C94.473 0.660975 94.311 0.982639 94.311 1.14348V32.5881C94.311 32.9098 94.635 33.0706 94.797 33.0706H100.467C100.791 33.0706 100.953 32.7489 100.953 32.5881V20.0156H106.623V32.5881C106.623 32.9098 106.947 33.0706 107.109 33.0706H112.779C113.103 33.0706 113.265 32.7489 113.265 32.5881V1.14348C113.265 0.982639 113.103 0.660975 112.779 0.660975ZM64.989 0.660975H59.319C58.995 0.660975 58.833 0.821797 58.833 1.14348V23.4201C58.833 24.546 58.509 25.3502 58.023 25.9936C57.537 26.6369 56.889 26.7978 56.079 26.7978C55.296 26.7978 54.621 26.4761 54.135 25.9936C53.649 25.3502 53.325 24.546 53.325 23.4201V1.14348C53.325 0.821797 53.001 0.660975 52.839 0.660975H47.169C46.845 0.660975 46.683 0.821797 46.683 1.14348V23.5809C46.683 26.4761 47.331 29.2104 49.113 31.0065C50.895 32.7757 53.325 33.7408 56.106 33.7408C59.022 33.7408 61.479 32.7757 63.099 31.0065C64.881 29.2372 65.529 26.6638 65.529 23.5809V1.14348C65.502 0.982639 65.34 0.660975 64.989 0.660975ZM9.423 0.178436C6.507 0.178436 4.05 1.14347 2.43 2.91274C0.648 4.682 0 7.25549 0 10.3383V23.7418C0 26.6369 0.648 29.3712 2.43 31.1673C4.212 32.9366 6.642 33.9016 9.423 33.9016C12.339 33.9016 14.796 32.9366 16.416 31.1673C18.198 29.398 18.846 26.8246 18.846 23.7418V16.3431C18.846 16.0214 18.522 15.6997 18.198 15.6997H9.909C9.585 15.6997 9.261 16.0214 9.261 16.3431V21.8385C9.261 22.1602 9.585 22.4818 9.909 22.4818H12.042V23.7686C12.042 24.8945 11.718 25.8863 11.232 26.5029C10.746 27.1463 10.098 27.3071 9.288 27.3071C8.505 27.3071 7.83 26.9854 7.344 26.5029C6.858 25.8595 6.534 24.8945 6.534 23.7686V10.5259C6.534 9.40003 6.858 8.40819 7.344 7.79163C7.83 7.14826 8.478 6.98742 9.288 6.98742C10.071 6.98742 10.746 7.3091 11.232 7.79163C11.718 8.43499 12.042 9.40003 12.042 10.5259V11.8127C12.042 12.1344 12.366 12.2952 12.528 12.2952H18.198C18.522 12.2952 18.684 12.1344 18.684 11.8127V10.5259C18.684 7.63077 18.036 4.89647 16.254 3.1004C14.796 1.14349 12.177 0.178436 9.423 0.178436ZM82.539 25.8327C82.053 26.4761 81.405 26.6369 80.406 26.6369H77.166V19.828H80.406C81.216 19.828 81.864 20.1497 82.35 20.6322C82.836 21.2755 83.16 22.0798 83.16 23.0448C83.214 24.3852 83.052 25.1625 82.539 25.8327ZM77.166 7.28229H80.082C80.892 7.28229 81.54 7.44313 82.026 8.0865C82.512 8.56902 82.674 9.37323 82.674 10.3651C82.674 11.3569 82.512 12.1344 82.026 12.7777C81.54 13.2602 80.892 13.5819 80.244 13.5819H77.328V7.28229H77.166ZM86.589 16.4771C87.561 15.512 89.343 13.2603 89.343 10.3383C89.343 6.9338 88.047 4.84284 87.048 3.71695C85.266 1.78684 82.836 0.82181 80.055 0.82181H71.172C70.848 0.82181 70.686 1.14347 70.686 1.30432V32.7757C70.686 33.0974 71.01 33.2583 71.172 33.2583H80.595C83.511 33.2583 86.265 32.1324 88.074 29.8538C89.046 28.567 90.207 26.4493 90.207 23.2324C90.018 19.3722 87.588 17.0937 86.589 16.4771ZM34.938 13.3943C34.452 14.0377 33.642 14.3593 32.643 14.3593H29.889V7.28229H32.643C33.615 7.28229 34.425 7.60396 34.938 8.24733C35.586 8.8907 35.748 9.6949 35.748 10.8208C35.748 11.9467 35.613 12.7509 34.938 13.3943ZM38.529 19.2114C39.177 18.7289 39.663 18.4072 40.149 17.7638C41.283 16.4771 42.741 14.1985 42.741 10.66C42.741 7.25547 41.445 5.03049 40.149 3.71695C38.529 1.78684 36.099 0.821817 33.318 0.660975H23.895C23.571 0.660975 23.409 0.982639 23.409 1.14348V32.5881C23.409 32.9098 23.733 33.0706 23.895 33.0706H29.565C29.889 33.0706 30.051 32.7489 30.051 32.5881V20.9538H31.995L35.586 32.883C35.586 33.0438 35.91 33.2046 36.072 33.2046H42.066C42.228 33.2046 42.39 33.0438 42.552 33.0438C42.714 33.0438 42.714 32.7221 42.714 32.5613L38.529 19.2114ZM154.197 25.8327C153.711 26.4761 153.063 26.6369 152.064 26.6369H148.824V19.828H152.064C152.874 19.828 153.522 20.1497 154.008 20.6322C154.494 21.2755 154.818 22.0798 154.818 23.0448C155.007 24.3852 154.71 25.1625 154.197 25.8327ZM148.986 7.28229H151.902C152.712 7.28229 153.36 7.44313 153.846 8.0865C154.332 8.56902 154.494 9.37323 154.494 10.3651C154.494 11.3569 154.332 12.1344 153.846 12.7777C153.36 13.2602 152.712 13.5819 152.064 13.5819H149.148V7.28229H148.986ZM158.409 16.4771C159.381 15.512 161.163 13.2603 161.163 10.3383C161.163 6.9338 159.867 4.84284 158.868 3.71695C157.086 1.78684 154.656 0.82181 151.875 0.82181H142.911C142.587 0.82181 142.425 1.14347 142.425 1.30432V32.7757C142.425 33.0974 142.749 33.2583 142.911 33.2583H152.388C155.304 33.2583 158.058 32.1324 159.867 29.8538C160.839 28.567 162 26.4493 162 23.2324C161.676 19.3722 159.246 17.0937 158.409 16.4771ZM136.647 0.660975H130.977C130.653 0.660975 130.491 0.821797 130.491 1.14348V23.4201C130.491 24.546 130.167 25.3502 129.681 25.9936C129.195 26.6369 128.547 26.7978 127.737 26.7978C126.954 26.7978 126.279 26.4761 125.793 25.9936C125.307 25.3502 124.983 24.546 124.983 23.4201V1.14348C124.983 0.821797 124.659 0.660975 124.497 0.660975H118.8C118.476 0.660975 118.314 0.821797 118.314 1.14348V23.5809C118.314 26.4761 118.962 29.2104 120.744 31.0065C122.526 32.7757 124.956 33.7408 127.737 33.7408C130.653 33.7408 133.11 32.7757 134.73 31.0065C136.512 29.2372 137.16 26.6638 137.16 23.5809V1.14348C137.322 0.982639 136.998 0.660975 136.647 0.660975Z" fill="black"/>
</svg>

<svg xmlns="http://www.w3.org/2000/svg" width="162" height="34" fill="none" viewBox="0 0 162 34"><path fill="#000" d="M112.779.661h-5.67c-.324 0-.486.322-.486.482v12.251h-5.67V1.144c0-.322-.324-.483-.486-.483h-5.67c-.324 0-.486.322-.486.482v31.445c0 .322.324.483.486.483h5.67c.324 0 .486-.322.486-.483V20.016h5.67v12.572c0 .322.324.483.486.483h5.67c.324 0 .486-.322.486-.483V1.143c0-.16-.162-.482-.486-.482Zm-47.79 0h-5.67c-.324 0-.486.16-.486.482V23.42c0 1.126-.324 1.93-.81 2.574-.486.643-1.134.804-1.944.804a2.74 2.74 0 0 1-1.944-.804c-.486-.644-.81-1.448-.81-2.574V1.143c0-.321-.324-.482-.486-.482h-5.67c-.324 0-.486.16-.486.482v22.438c0 2.895.648 5.63 2.43 7.425 1.782 1.77 4.212 2.735 6.993 2.735 2.916 0 5.373-.965 6.993-2.735 1.782-1.769 2.43-4.342 2.43-7.425V1.143c-.027-.16-.189-.482-.54-.482ZM9.423.178c-2.916 0-5.373.965-6.993 2.735C.648 4.682 0 7.255 0 10.338v13.404c0 2.895.648 5.63 2.43 7.425 1.782 1.77 4.212 2.735 6.993 2.735 2.916 0 5.373-.965 6.993-2.735 1.782-1.769 2.43-4.342 2.43-7.425v-7.399c0-.322-.324-.643-.648-.643H9.909c-.324 0-.648.321-.648.643v5.495c0 .322.324.644.648.644h2.133v1.287c0 1.126-.324 2.117-.81 2.734-.486.643-1.134.804-1.944.804a2.74 2.74 0 0 1-1.944-.804c-.486-.643-.81-1.608-.81-2.734V10.526c0-1.126.324-2.118.81-2.734.486-.644 1.134-.805 1.944-.805a2.74 2.74 0 0 1 1.944.805c.486.643.81 1.608.81 2.734v1.287c0 .321.324.482.486.482h5.67c.324 0 .486-.16.486-.482v-1.287c0-2.895-.648-5.63-2.43-7.426C14.796 1.143 12.177.178 9.423.178Zm73.116 25.655c-.486.643-1.134.804-2.133.804h-3.24v-6.809h3.24c.81 0 1.458.322 1.944.804.486.643.81 1.448.81 2.413.054 1.34-.108 2.117-.621 2.788Zm-5.373-18.55h2.916c.81 0 1.458.16 1.944.803.486.483.648 1.287.648 2.28 0 .99-.162 1.768-.648 2.412-.486.482-1.134.804-1.782.804h-2.916v-6.3h-.162Zm9.423 9.194c.972-.965 2.754-3.217 2.754-6.139 0-3.404-1.296-5.495-2.295-6.621-1.782-1.93-4.212-2.895-6.993-2.895h-8.883c-.324 0-.486.321-.486.482v31.472c0 .321.324.482.486.482h9.423c2.916 0 5.67-1.126 7.479-3.404.972-1.287 2.133-3.405 2.133-6.622-.189-3.86-2.619-6.138-3.618-6.755Zm-51.651-3.083c-.486.644-1.296.965-2.295.965h-2.754V7.282h2.754c.972 0 1.782.322 2.295.965.648.644.81 1.448.81 2.574s-.135 1.93-.81 2.573Zm3.591 5.817c.648-.482 1.134-.804 1.62-1.447 1.134-1.287 2.592-3.566 2.592-7.104 0-3.405-1.296-5.63-2.592-6.943-1.62-1.93-4.05-2.895-6.831-3.056h-9.423c-.324 0-.486.322-.486.482v31.445c0 .322.324.483.486.483h5.67c.324 0 .486-.322.486-.483V20.954h1.944l3.591 11.929c0 .16.324.322.486.322h5.994c.162 0 .324-.161.486-.161.162 0 .162-.322.162-.483l-4.185-13.35Zm115.668 6.622c-.486.643-1.134.804-2.133.804h-3.24v-6.809h3.24c.81 0 1.458.322 1.944.804.486.643.81 1.448.81 2.413.189 1.34-.108 2.117-.621 2.788Zm-5.211-18.55h2.916c.81 0 1.458.16 1.944.803.486.483.648 1.287.648 2.28 0 .99-.162 1.768-.648 2.412-.486.482-1.134.804-1.782.804h-2.916v-6.3h-.162Zm9.423 9.194c.972-.965 2.754-3.217 2.754-6.139 0-3.404-1.296-5.495-2.295-6.621-1.782-1.93-4.212-2.895-6.993-2.895h-8.964c-.324 0-.486.321-.486.482v31.472c0 .321.324.482.486.482h9.477c2.916 0 5.67-1.126 7.479-3.404.972-1.287 2.133-3.405 2.133-6.622-.324-3.86-2.754-6.138-3.591-6.755ZM136.647.661h-5.67c-.324 0-.486.16-.486.482V23.42c0 1.126-.324 1.93-.81 2.574-.486.643-1.134.804-1.944.804a2.74 2.74 0 0 1-1.944-.804c-.486-.644-.81-1.448-.81-2.574V1.143c0-.321-.324-.482-.486-.482H118.8c-.324 0-.486.16-.486.482v22.438c0 2.895.648 5.63 2.43 7.425 1.782 1.77 4.212 2.735 6.993 2.735 2.916 0 5.373-.965 6.993-2.735 1.782-1.769 2.43-4.342 2.43-7.425V1.143c.162-.16-.162-.482-.513-.482Z"/></svg>
